X:1
T: O Susato
N:
C:Tielman Susato
S:Tune is "Ronde IX"
A:
O:
R:
M:4/4
K:C
I:speed 120
%W: A
% voice 1 (1 lines, 30 notes)
K:C
M:4/4
L:1/16
g2 |f2 d2 d2 f2 e2 c2 c2 e2 |d2 _B2 c2 d2 e4 c2 g2 |f2 d2 d2 f2 e4 d2 c2 |B2 A2 d2 c2 c4 z2 g2 |
%W:
% voice 1 (1 lines, 29 notes)
f2 d2 d2 f2 e2 c2 c2 e2 |d2 _B2 c2 d2 e4 c2 g2 |f2 d2 d2 f2 e4 d2 c2 |B2 A2 d2 c2 c4 z2 c2 |
%W: B
% voice 1 (1 lines, 26 notes)
f2 e2 f2 g2 a6 a2 |g2 f2 e2 d2 e4 c2 c2 |f2 e2 f2 g2 a6 a2 |g2 f2 e2 d2 e4 z2 c2 |
%W:
% voice 1 (1 lines, 25 notes)
f2 e2 f2 g2 a6 a2 |g2 f2 e2 d2 e4 c2 c2 |f2 e2 f2 g2 a6 a2 |g2 f2 e2 d2 e4 z4 |
%W: C
% voice 1 (1 lines, 20 notes)
e4 e2 e2 e6 e2 |e2 c2 d2 e2 f8 |e4 e2 e2 d4 c4 |B2 A2 d2 c2 c8 |
%W:
% voice 1 (1 lines, 20 notes)
e4 e2 e2 e6 e2 |e2 c2 d2 e2 f8 |e4 e2 e2 d4 c4 |B2 A2 d2 c2 c8 ||
